X: 05017
T: DAVE POSSI'S REEL
T: Dav(e)y's Tune
C: Bob McQuillen 26 Mar 81
B: Bob's Note Book 4 #17
Z: 2005 John Chambers (edited 2020 to include the text from the book)
R: march
M: C
L: 1/8
K: Am
|: E2G2 \
| A2F2 A3B  | c2 A4  e2 | d2c2 B2G2 | A6 E2 | A2F2 A3B | c2A2 A2a2 | g2e2 c2e2 | d4 e2g2 |
| a2g2 e2a2 | g2e2 e2d2 | cded c2A2 | G6 EG | A3B c2a2 | g2e2 d2ed | c2A2 B2G2 | A4 :|
|: e2g2 \
| a4   c'3a | g2 e4  g2 | a2c'2 c'2a2 | g6 eg | a2c'2 c'3a | g2e2 d2cd | e2d2 c2A2 | A2G2 E2G2 |
| A2c2 c2A2 | G2E2 E2G2 | A3B   c2d2  | e6 g2 | a2g2  c'3a | g2e2 d2cd | c2A2 A3G  | A4 :|
%%begintext align
%% Doris & Bill
%% Possi from Boston have a real nice kid named David,
%% who brought me some _great_ ice cream one
%% afternoon at the Girl Scout House in Concord, Mass.
%% Thanks, Davy!
%%endtext

% %newpage
% %vskip 5.1cm
% %center --- 08018 spacer ---
% %sep 1 1 500

%%sep 1 1 500

%%sep 1 1 500

